X: 32
T: Ferry Boat
R: polka
Z: 2011 John Chambers <jc:trillian.mit.edu>
F: http://www.h-p-t.com/AVI/Lincolnshire.mp3 (2nd tune)
M: 2/4
L: 1/16
K: G
|:"G"d2B2 d2Bd | "G"e2d2 Bcd2 | "G"g2fg a2g2 | "C"f4 e4 \
| "Am"c2A2 e3d | "D7"c2B2 A3B |1 "D7"A2G2 F2E2 | "(G)"E4 "G"D4 :|2 "D7"A2G2 F2G2 | "(G)"A4 "G"G4 |]
|: "G"B6 c2 | "G"d6 Bc | "G"d2g2 Bcd2 | "Am"d2c2 cBc2 \
|  "D7"A6 B2 | "D7"c6 d2 |1 "D7"f2e2 c2A2 | "G"e2d2 B2G2 :|2 "D7"f2e2 c2A2 | "G"G4 g4 |]

%%sep 1 1 500

